static/img/kroki/4fdb7045bcfcd26c3103d3caa503f7d5.svg

<?xml version="1.0" encoding="us-ascii" standalone="no"?><svg xmlns="http://www.w3.org/2000/svg" xmlns:xlink="http://www.w3.org/1999/xlink" contentStyleType="text/css" height="252px" preserveAspectRatio="none" style="width:293px;height:252px;" version="1.1" viewBox="0 0 293 252" width="293px" zoomAndPan="magnify"><defs/><g><!--class kubernetes_config_map--><g id="elem_kubernetes_config_map"><rect codeLine="23" fill="#3D176E" height="39.7891" id="kubernetes_config_map" rx="2.5" ry="2.5" style="stroke:#000D19;stroke-width:0.5;" width="241" x="7" y="206.58"/><ellipse cx="22" cy="226.4745" fill="#ADD1B2" rx="11" ry="11" style="stroke:#181818;stroke-width:1.0;"/><path d="M24.9688,232.1152 Q24.3906,232.412 23.75,232.5527 Q23.1094,232.7089 22.4063,232.7089 Q19.9063,232.7089 18.5781,231.0683 Q17.2656,229.412 17.2656,226.287 Q17.2656,223.162 18.5781,221.5058 Q19.9063,219.8495 22.4063,219.8495 Q23.1094,219.8495 23.75,220.0058 Q24.4063,220.162 24.9688,220.4589 L24.9688,223.1777 Q24.3438,222.5995 23.75,222.3339 Q23.1563,222.0527 22.5313,222.0527 Q21.1875,222.0527 20.5,223.1308 Q19.8125,224.1933 19.8125,226.287 Q19.8125,228.3808 20.5,229.4589 Q21.1875,230.5214 22.5313,230.5214 Q23.1563,230.5214 23.75,230.2558 Q24.3438,229.9745 24.9688,229.3964 L24.9688,232.1152 Z " fill="#000000"/><text fill="#D9B8FF" font-family="Helvetica" font-size="17" lengthAdjust="spacing" textLength="199" x="41" y="232.3598">kubernetes_config_map</text></g><!--class kubernetes_namespace--><g id="elem_kubernetes_namespace"><rect codeLine="26" fill="#3D176E" height="39.7891" id="kubernetes_namespace" rx="2.5" ry="2.5" style="stroke:#000D19;stroke-width:0.5;" width="239" x="8" y="7"/><ellipse cx="23" cy="26.8945" fill="#ADD1B2" rx="11" ry="11" style="stroke:#181818;stroke-width:1.0;"/><path d="M25.9688,32.5352 Q25.3906,32.832 24.75,32.9727 Q24.1094,33.1289 23.4063,33.1289 Q20.9063,33.1289 19.5781,31.4883 Q18.2656,29.832 18.2656,26.707 Q18.2656,23.582 19.5781,21.9258 Q20.9063,20.2695 23.4063,20.2695 Q24.1094,20.2695 24.75,20.4258 Q25.4063,20.582 25.9688,20.8789 L25.9688,23.5977 Q25.3438,23.0195 24.75,22.7539 Q24.1563,22.4727 23.5313,22.4727 Q22.1875,22.4727 21.5,23.5508 Q20.8125,24.6133 20.8125,26.707 Q20.8125,28.8008 21.5,29.8789 Q22.1875,30.9414 23.5313,30.9414 Q24.1563,30.9414 24.75,30.6758 Q25.3438,30.3945 25.9688,29.8164 L25.9688,32.5352 Z " fill="#000000"/><text fill="#D9B8FF" font-family="Helvetica" font-size="17" lengthAdjust="spacing" textLength="197" x="42" y="32.7798">kubernetes_namespace</text></g><!--class kubernetes_pod--><g id="elem_kubernetes_pod"><rect codeLine="29" fill="#3D176E" height="39.7891" id="kubernetes_pod" rx="2.5" ry="2.5" style="stroke:#000D19;stroke-width:0.5;" width="175" x="111" y="106.79"/><ellipse cx="126" cy="126.6845" fill="#ADD1B2" rx="11" ry="11" style="stroke:#181818;stroke-width:1.0;"/><path d="M128.9688,132.3252 Q128.3906,132.622 127.75,132.7627 Q127.1094,132.9189 126.4063,132.9189 Q123.9063,132.9189 122.5781,131.2783 Q121.2656,129.622 121.2656,126.497 Q121.2656,123.372 122.5781,121.7158 Q123.9063,120.0595 126.4063,120.0595 Q127.1094,120.0595 127.75,120.2158 Q128.4063,120.372 128.9688,120.6689 L128.9688,123.3877 Q128.3438,122.8095 127.75,122.5439 Q127.1563,122.2627 126.5313,122.2627 Q125.1875,122.2627 124.5,123.3408 Q123.8125,124.4033 123.8125,126.497 Q123.8125,128.5908 124.5,129.6689 Q125.1875,130.7314 126.5313,130.7314 Q127.1563,130.7314 127.75,130.4658 Q128.3438,130.1845 128.9688,129.6064 L128.9688,132.3252 Z " fill="#000000"/><text fill="#D9B8FF" font-family="Helvetica" font-size="17" lengthAdjust="spacing" textLength="133" x="145" y="132.5698">kubernetes_pod</text></g><!--link kubernetes_namespace to kubernetes_config_map--><g id="link_kubernetes_namespace_kubernetes_config_map"><path codeLine="32" d="M116.5,47.27 C108.34,62.8 97.9,85.47 93.5,106.79 C89.93,124.11 89.93,129.26 93.5,146.58 C97.9,167.91 105.5506,185.2578 113.7106,200.7978 " fill="none" id="kubernetes_namespace-to-kubernetes_config_map" style="stroke:#1A83AF;stroke-width:2.0;"/><polygon fill="#1A83AF" points="116.5,206.11,115.8573,196.2821,114.1755,201.6832,108.7744,200.0013,116.5,206.11" style="stroke:#1A83AF;stroke-width:2.0;"/></g><!--link kubernetes_namespace to kubernetes_pod--><g id="link_kubernetes_namespace_kubernetes_pod"><path codeLine="33" d="M141.53,47.22 C153.97,64.36 168.5357,84.4142 180.9757,101.5542 " fill="none" id="kubernetes_namespace-to-kubernetes_pod" style="stroke:#1A83AF;stroke-width:2.0;"/><polygon fill="#1A83AF" points="184.5,106.41,182.4508,96.7767,181.5631,102.3635,175.9763,101.4758,184.5,106.41" style="stroke:#1A83AF;stroke-width:2.0;"/></g><!--link kubernetes_pod to kubernetes_config_map--><g id="link_kubernetes_pod_kubernetes_config_map"><path codeLine="34" d="M184.47,147.01 C172.03,164.15 157.4643,184.2042 145.0243,201.3442 " fill="none" id="kubernetes_pod-to-kubernetes_config_map" style="stroke:#1A83AF;stroke-width:2.0;"/><polygon fill="#1A83AF" points="141.5,206.2,150.0237,201.2658,144.4369,202.1535,143.5492,196.5667,141.5,206.2" style="stroke:#1A83AF;stroke-width:2.0;"/></g><!--SRC=[bP9FJuGm4CNlV8ecd3S1YG8N4oJPw6LZN6_6R0gTBWtGacbning_ko1gAdzszJhlD_FUJAOG30ZKZJcI6keCK3kw5BAXI6kI8Af3gYg5nEMSyY0SYsibpLbWGsiWjr2zW14v7HEFXSXB2LgJ2qkweNcvHzLADemtIANk9936ejAAQfqOWo9h3LXXM9n5d8_9yL0tO7vu1HDC8GFyGZpFOtuyHivQdTpxXzYALo2-VRIDCZ29ER7uf4wcx0ahv6JHRtqnuprbJCWzkRHg3qCcb82_wjk2CdNeQKuhRTje0mZA71j89rj1734Upi9tIx2JzwSZPTjzgWG3UfShoSL-LzE6l3dE-nIGtORTv-Ime3UA3Sfip-h9zPCeIDRFg-jvs__rTMxEoFmF5Xy0]--></g></svg>

<svg xmlns="http://www.w3.org/2000/svg" width="293" height="252" viewBox="0 0 293 252"><rect width="241" height="39.789" x="7" y="206.58" fill="#3D176E" rx="2.5" ry="2.5" style="stroke:#000d19;stroke-width:.5"/><circle cx="22" cy="226.475" r="11" fill="#ADD1B2" style="stroke:#181818;stroke-width:1"/><path d="M24.969 232.115q-.578.297-1.219.438-.64.156-1.344.156-2.5 0-3.828-1.64-1.312-1.657-1.312-4.782t1.312-4.781q1.328-1.656 3.828-1.656.703 0 1.344.156.656.156 1.219.453v2.719q-.625-.578-1.219-.844-.594-.281-1.219-.281-1.343 0-2.031 1.078-.687 1.062-.687 3.156t.687 3.172q.688 1.062 2.031 1.062.625 0 1.219-.265.594-.281 1.219-.86z"/><text x="41" y="232.36" fill="#D9B8FF" font-family="Helvetica" font-size="17" textLength="199">kubernetes_config_map</text><rect width="239" height="39.789" x="8" y="7" fill="#3D176E" rx="2.5" ry="2.5" style="stroke:#000d19;stroke-width:.5"/><circle cx="23" cy="26.895" r="11" fill="#ADD1B2" style="stroke:#181818;stroke-width:1"/><path d="M25.969 32.535q-.578.297-1.219.438-.64.156-1.344.156-2.5 0-3.828-1.64-1.312-1.657-1.312-4.782t1.312-4.781q1.328-1.656 3.828-1.656.703 0 1.344.156.656.156 1.219.453v2.719q-.625-.578-1.219-.844-.594-.281-1.219-.281-1.343 0-2.031 1.078-.687 1.062-.687 3.156t.687 3.172q.688 1.062 2.031 1.062.625 0 1.219-.265.594-.281 1.219-.86z"/><text x="42" y="32.78" fill="#D9B8FF" font-family="Helvetica" font-size="17" textLength="197">kubernetes_namespace</text><rect width="175" height="39.789" x="111" y="106.79" fill="#3D176E" rx="2.5" ry="2.5" style="stroke:#000d19;stroke-width:.5"/><circle cx="126" cy="126.684" r="11" fill="#ADD1B2" style="stroke:#181818;stroke-width:1"/><path d="M128.969 132.325q-.578.297-1.219.438-.64.156-1.344.156-2.5 0-3.828-1.64-1.312-1.657-1.312-4.782t1.312-4.781q1.328-1.656 3.828-1.656.703 0 1.344.156.656.156 1.219.453v2.719q-.625-.579-1.219-.844-.594-.281-1.219-.281-1.344 0-2.031 1.078-.687 1.062-.687 3.156t.687 3.172q.688 1.062 2.031 1.062.625 0 1.219-.265.594-.281 1.219-.86z"/><text x="145" y="132.57" fill="#D9B8FF" font-family="Helvetica" font-size="17" textLength="133">kubernetes_pod</text><path fill="none" d="M116.5 47.27c-8.16 15.53-18.6 38.2-23 59.52-3.57 17.32-3.57 22.47 0 39.79 4.4 21.33 12.05 38.678 20.21 54.218" style="stroke:#1a83af;stroke-width:2"/><path fill="#1A83AF" d="m116.5 206.11-.643-9.828-1.681 5.401-5.402-1.682z" style="stroke:#1a83af;stroke-width:2"/><path fill="none" d="M141.53 47.22c12.44 17.14 27.006 37.194 39.446 54.334" style="stroke:#1a83af;stroke-width:2"/><path fill="#1A83AF" d="m184.5 106.41-2.05-9.633-.887 5.587-5.587-.888z" style="stroke:#1a83af;stroke-width:2"/><path fill="none" d="M184.47 147.01c-12.44 17.14-27.006 37.194-39.446 54.334" style="stroke:#1a83af;stroke-width:2"/><path fill="#1A83AF" d="m141.5 206.2 8.524-4.934-5.587.888-.888-5.587z" style="stroke:#1a83af;stroke-width:2"/></svg>
